X: 4
T: Marquis Of Huntly's, The
Z: ceolachan
S: https://thesession.org/tunes/9750#setting24612
R: barndance
M: 4/4
L: 1/8
K: Dmaj
|: A |d2 f>d g>ef>d | B2 e>d c>Bc<A |\
d2 f>d g>ef>d | B>e d/c/B/A/ d2 d :|
|: B |A>DF<D F<AA>f | g>ef>d e>dB<d |\
A>DF<D F<AA>f | a>fe<f d2 d :|
